!!!COM: Scriabin, Alexander
!!!OTL@@FR: Quasi-valse en fa majeur
!!!OTL@@EN: Quasi-valse in F Major
!!!OPS: 47
!!!ODT: 1905
!!!AGN: Waltz
**kern	**kern	**dynam
*staff2	*staff1	*staff1/2
*Ipiano	*Ipiano	*
*clefF4	*clefG2	*
*k[b-]	*k[b-]	*
*F:	*F:	*
*M3/4	*M3/4	*
*	*^	*
8r	8r	8cc#X	p
=1	=1	=1	=1
2G-X	4r	2.dd	.
*	*^	*	*
.	2e\	4ccn	.	.
4r	.	4b-	.	.
=2	=2	=2	=2	=2
2.C 2.B-	2.e\	4a	8ree	.
.	.	.	8dd	.
.	.	4a-X	4.bb-	.
.	.	4gn	.	.
.	.	.	8cc#X	.
*	*	*v	*v	*
=3	=3	=3	=3
2G-X	4r	2.dd	.
*	*^	*	*
.	2e\	4ccn	.	.
4r	.	4b-	.	.
=4	=4	=4	=4	=4
2.C 2.B-	2.e\	4a	8ree	.
.	.	.	8dd	.
.	.	4a-X	4.bb-	.
.	.	4gn	.	.
.	.	.	8dd	.
*	*	*v	*v	*
=5	=5	=5	=5
4AAn	4r	4.dd#X	.
*^	*	*	*
2G 2c#X	4b-	2g 2cc#X	.	.
.	.	.	4ee	.
.	4a	.	.	.
.	.	.	8ee#X	.
*v	*v	*	*	*
!!LO:LB:g=original
=6	=6	=6	=6
4FF 4F	4rf	2bb--	.
*^	*	*	*
4G 4g	2d-	2dd-	.	.
4A-X 4a-X	.	.	4aa-X	.
*v	*v	*	*	*
=7	=7	=7	=7
4GG	4re	4.gg	.
*^	*	*	*
4c	2F 2f	4re	.	.
.	.	.	[8an	.
4Bn	.	4a]	8eeL	.
.	.	.	8ddnJ	.
*	*	*v	*v	*
=8	=8	=8	=8
2.B-X	4r	8ddL	.
.	.	8g#X	>
.	2C 2e	8a	.
.	.	8b-J	.
.	.	12bnL	.
.	.	12cc	.
.	.	12cc#XJ	.
*v	*v	*	*
=9	=9	=9
*	*^	*
2G-X	4r	2.dd	p
*	*^	*	*
.	2e\	4ccn	.	.
4r	.	4b-X	.	.
=10	=10	=10	=10	=10
2.C 2.B-	2.e\	4a	8ree	.
.	.	.	8dd	.
.	.	4a-X	4.bb-	.
.	.	4gn	.	.
.	.	.	8cc#X	.
*	*	*v	*v	*
!!LO:LB:g=original
=11	=11	=11	=11
2G-X	4r	2.dd	.
*	*^	*	*
.	2e\	4ccn	.	.
4r	.	4b-	.	.
=12	=12	=12	=12	=12
2.C 2.B-	2.e\	4a	8ree	.
.	.	.	8dd	.
.	.	4a-X	4.bb-	.
.	.	4gn	.	.
.	.	.	8cc#X	.
*	*	*v	*v	*
=13	=13	=13	=13
2.G-X	4r	2dd	<
*	*^	*	*
.	2e\	4an	.	.
.	.	4b-	8rff	.
.	.	.	8dd	.
=14	=14	=14	=14	=14
*^	*	*	*	*
2.D	4r	4r	4r	2gg-X	.
.	2B- 2e	2b-\	4cc#X	.	.
.	.	.	4dd	8raa	.
.	.	.	.	8gg-	.
*v	*v	*	*	*	*
=15	=15	=15	=15	=15
4Cn	4r	4r	2aa	.
*^	*	*	*	*
2B-	4f	2b- 2dd-\	4ff	.	.
.	4e	.	4ee	8rbb	.
.	.	.	.	8aa	.
*	*	*	*v	*v	*
*v	*v	*	*	*
=16	=16	=16	=16
4FF	4r	2ddd-X	.
4BBn 4A 4f	4dd-X 4ff 4aa	.	.
4C 4A 4f	4cc 4ff	4aa 4ccc	.
*	*v	*v	*
!!LO:LB:g=original
=17	=17	=17
4C 4A-X 4dn	8r	p
.	8a-X	.
*	*^	*
4AA-X 4A-X	2a- 2dd	4.g-X 4.gg-X	.
4CC 4C	.	.	.
.	.	8f-X 8ff-X	.
=18	=18	=18	=18
*^	*	*	*
4C 4A-X	8d/L	4a-X	8f-XL 8ff-X	.
.	8e->J	.	8e-X 8ee-X	.
*	*	*v	*v	*
*v	*v	*	*
4AA-X 4A-	8cc	.
.	8a-J	.
4CC 4C	12f-L	.
.	12d	.
.	12e-J	.
=19	=19	=19
4CC 4C	4A-X 4d 4g-X	.
4AA-X 4A-X	8r	.
.	8A-	.
4BBBn 4BBn	8dL 8g-	.
.	8a-XJ	.
=20	=20	=20
4CC 4C	8ddL 8gg-X	.
.	8a-X	.
4AA-X 4A-X	8g-X	.
.	8dJ	.
4BBBn 4BBn	4r	.
=21	=21	=21
4C 4A-X 4d	8r	.
.	8a-X	.
*	*^	*
4AA-X 4A-	2a- 2dd	4.g-X 4.gg-X	.
4CC 4C	.	.	.
.	.	8f-X 8ff-X	.
!!LO:LB:g=original
=22	=22	=22	=22
*^	*	*	*
4C 4A-X	8d/L	4a-X	8f-XL 8ff-X	.
.	8e->J	.	8e-X 8ee-X	.
*	*	*v	*v	*
*v	*v	*	*
4AA-X 4A-	8cc	.
.	8a-J	.
4CC 4C	12f-L	.
.	12d	.
.	12e-J	.
=23	=23	=23
4EE-X 4E-X	4A-X 4c 4g	.
4C 4c	8r	.
.	8A-	.
4DD 4D	8gL	.
.	8a-XJ	.
=24	=24	=24
4EE-X 4E-X	8ccL 8gg	.
.	8a-X	.
4C 4c	8f#X	.
.	8AnJ	.
4DD 4D	4r	.
=25	=25	=25
4BB-X 4G-X 4c	8r	.
.	8g-X	.
*	*^	*
4GG-X 4G-X	2g- 2cc	4.f-X 4.ff-X	.
4BBB- 4BB-	.	.	.
.	.	8e-- 8ee--	.
!!LO:LB:g=original
=26	=26	=26	=26
*^	*	*	*
4BB- 4G-X	8c/L	4g-X	8e--L 8ee--	.
.	8d->J	.	8d-X 8dd-X	.
*	*	*v	*v	*
*v	*v	*	*
4GG-X 4G-	8b-	.
.	8g-J	.
4BBB- 4BB-	12e--L	.
.	12c	.
.	12d-J	.
=27	=27	=27
4BBB- 4BB-	4G-X 4c 4f-X	.
4GG-X 4G-X	8r	.
.	8G-	.
4AAA 4AA	8cL 8f-	.
.	8g-XJ	.
=28	=28	=28
4BBB- 4BB-	8ccL 8ff-X	.
.	8g-X	.
4GG-X 4G-X	8f-X	.
.	8cJ	.
4AAA 4AA	4r	.
=29	=29	=29
4BB- 4G-X 4c	8r	.
.	8g-X	.
*	*^	*
4GG-X 4G-	2g- 2cc	4.f-X 4.ff-X	.
4BBB- 4BB-	.	.	.
.	.	8e-- 8ee--	.
!!LO:LB:g=original
=30	=30	=30	=30
*^	*	*	*
4BB- 4G-X	8c/L	4g-X	8e--L 8ee--	.
.	8d->J	.	8d-X 8dd-X	.
*	*	*v	*v	*
*v	*v	*	*
4GG-X 4G-	8b-	.
.	8g-J	.
4BBB- 4BB-	12e--L	.
.	12c	.
.	12d-J	.
=31	=31	=31
4DD-X 4D-X	4G-X 4B- 4f	.
4BB- 4B-	8r	.
.	8G-	.
4CC 4C	8fL	.
.	8g-XJ	.
=32	=32	=32
4DD-X 4D-X	8b-L 8ff	.
.	8g-X	.
4BB- 4B-	8e	.
.	8GnJ	.
8CC 8C	8r	.
8r	8c#X 8cc#X	f
=33	=33	=33
*^	*^	*
4GG-X 4E 4B-	4r	4b-	2.d 2.e 2.dd	.
4r	4cn> 4ccn>	4raa	.	.
4r	4B-> 4b->	4raa	.	.
*	*	*v	*v	*
=34	=34	=34	=34
4CC 4C\	4A> 4B-> 4e> 4a>	8r	.
.	.	8dd	.
2B- 2e	4A-X 4a-X	4.b- 4.dd 4.bb-/	.
.	4Gn 4gn	.	.
.	.	8c#X 8cc#X	.
!!LO:LB:g=original
=35	=35	=35	=35
*	*	*^	*
4GG-X 4E 4B-	4r	4b-	2.d 2.e 2.dd	.
4r	4cn> 4ccn>	4raa	.	.
4r	4B-> 4b->	4raa	.	.
*	*	*v	*v	*
=36	=36	=36	=36
4CC 4C\	4A> 4B-> 4e> 4a>	8r	.
.	.	8dd	.
2B- 2e	4A-X 4a-X	4.b- 4.dd 4.bb-/	.
.	4Gn 4gn	.	.
.	.	8c#X 8cc#X	.
=37	=37	=37	=37
*	*	*^	*
4GG-X 4E 4B-	4r	4b-	2d 2e 2dd	.
4r	4An 4an	4ryy	.	.
*	*	*v	*v	*
4r	4B- 4b-	8r	.
.	.	8d 8dd	.
=38	=38	=38	=38
[8qDD [8qD	.	.	.
4DD] 4D] 4B- 4e	4r	2g-X 2b- 2gg-X	.
*clefG2	*	*	*
4r	4c#X 4cc#X	.	.
4r	4d 4dd	8r	.
.	.	8g- 8gg-	.
*clefF4	*	*	*
=39	=39	=39	=39
[8qCCn [8qCn	.	.	.
4CC] 4C] 4B- 4e	4r	2a 2dd-X 2aa	.
*clefG2	*	*	*
4r	4f 4ff	.	.
4r	4e 4ee	8r	.
.	.	8a 8aa	.
*v	*v	*	*
*clefF4	*	*
=40	=40	=40
*	*^	*
4FFF 4FF	4r	2dd-X 2ddd-X	.
4BBn 4A 4f	4dd- 4ff 4aa	.	.
8C 8A 8f	8cc 8ff 8aa	8cc 8ccc	.
*	*v	*v	*
8c	8r	p
!!LO:LB:g=original
=41	=41	=41
2d-X	4r	.
.	[2g 2bn [2ff	.
8r	.	.
[8d-	.	.
=42	=42	=42
2.d-] 2.bn	2.g] 2.ff]	.
=43	=43	=43
4r	4r	.
4FF 4C 4A	4f 4cc 4ff	<
4C 4A 4f	4a 4ff 4aa	[
=44	=44	=44
*^	*^	*
4Bn	2f 2a	2ff 2aa	4dd-X 4ddd-X	.
4c	.	.	4cc 4ccc	.
*v	*v	*	*	*
4r	4r	4aa	.
*	*v	*v	*
=45	=45	=45
2.r	16%3gg-X	>
.	16%3ff	)
.	16%3bn	)
.	16%3cc	]
=46	=46	=46
4r	2dd-X	.
4r	.	.
8r	4r	.
8C	.	.
!!LO:LB:g=original
=47	=47	=47
2.D-X	4r	.
.	[2G 2Bn [2f	.
=48	=48	=48
8r	2.G] 2.f]	.
[8D-X	.	.
2D-] 2Bn	.	.
=49	=49	=49
4r	4r	.
4FFF 4FF	4A 4c 4f	<
4C	4A 4f 4a	[
=50	=50	=50
*	*^	*
4Bn	2f 2a	4dd-X	>
4c	.	4cc	)
4r	4r	4a	)
*	*v	*v	*
=51	=51	=51
2.r	16%3g-X	]
.	16%3f	.
.	16%3Bn	.
.	16%3c	.
=52	=52	=52
2.r	2d-X	< [
.	4d-	> ]
=53	=53	=53
2.FFF 2.FF 2.C	2.A 2.c 2.f 2.a	pp
==	==	==
*-	*-	*-
!!!system-decoration: {(*)}
!!!filter: flipper -a
!!!RDF**kern: > = above
!!!RDF**dynam: > = dim.
!!!ENC: Bryan Jacob Bell
!!!END: November 2021 to April 2022
!!!PED: Günter Philipp
!!!PTL: Ausgewählte Klavierwerke (Edition Peters)
!!!URL-pdf: https://github.com/bel28kent/Mysterium/blob/main/reference_editions/op47.pdf
